X:126
T:Jackson's
T:The Dublin reel
R:Reel
P:APB Johnny Wilmot
B:O'Neill's 1374
S:Mike Long
D:Johnny Wilmot- Another Side of Cape Breton
Z:Transcription, chords:Mike Long
M:C|
L:1/8
K:G
ef[|\
"G"gB~B2 GB~B2|"G"gB~B2 "D"{e}dBAB|"G"gB~B2 gbag|"D"fgef dBAF|\
"G"GB~B2 GB~B2|"G"GB~B2 "D"dBAB|
"G"GB~B2 GBag|"D"(3(fga) ef defg\
|:"D"ad~d2 adbd|"D"ad~d2 "(A)"dBAf|"D"ad~d2 abaf|"G"egfe "A"dBAf|
"D"ad~d2 bd~d2|"D"ad~d2 "(A)"dBAf|"G"~g2gf gbag|[1 "A"fgfe "D"defg:|[2 "A"fge^c "D End"d2|]\
ef|\
"G"(gb)af gdBd|
"G"~g2ge "D"dBAB|"G"~g2gf gbag|"D"fgef dBAB|\
"G"gbaf gdBd|"G"~g2ge "D"dBAB|"G"~g2gf gbag|"D"(3(faf) ef d2ef|]
